src/assets/filled/VolumeCross.svg

<svg width="24" height="24" viewBox="0 0 24 24"  xmlns="http://www.w3.org/2000/svg">
<path d="M22.5299 13.4199L21.0799 11.9699L22.4799 10.5699C22.7699 10.2799 22.7699 9.79993 22.4799 9.50993C22.1899 9.21993 21.7099 9.21993 21.4199 9.50993L20.0199 10.9099L18.5699 9.45993C18.2799 9.16993 17.7999 9.16993 17.5099 9.45993C17.2199 9.74993 17.2199 10.2299 17.5099 10.5199L18.9599 11.9699L17.4699 13.4599C17.1799 13.7499 17.1799 14.2299 17.4699 14.5199C17.6199 14.6699 17.8099 14.7399 17.9999 14.7399C18.1899 14.7399 18.3799 14.6699 18.5299 14.5199L20.0199 13.0299L21.4699 14.4799C21.6199 14.6299 21.8099 14.6999 21.9999 14.6999C22.1899 14.6999 22.3799 14.6299 22.5299 14.4799C22.8199 14.1899 22.8199 13.7199 22.5299 13.4199Z" />
<path d="M14.02 3.77997C12.9 3.15997 11.47 3.31997 10.01 4.22997L7.09 6.05997C6.89 6.17997 6.66 6.24997 6.43 6.24997H5.5H5C2.58 6.24997 1.25 7.57997 1.25 9.99997V14C1.25 16.42 2.58 17.75 5 17.75H5.5H6.43C6.66 17.75 6.89 17.82 7.09 17.94L10.01 19.77C10.89 20.32 11.75 20.59 12.55 20.59C13.07 20.59 13.57 20.47 14.02 20.22C15.13 19.6 15.75 18.31 15.75 16.59V7.40997C15.75 5.68997 15.13 4.39997 14.02 3.77997Z" />
</svg>

<?xml version="1.0" encoding="UTF-8"?>
<svg width="24" height="24" viewBox="0 0 24 24" xmlns="http://www.w3.org/2000/svg">
 <path d="m22.53 13.42-1.45-1.45 1.4-1.4c0.29-0.29 0.29-0.76997 0-1.06s-0.77-0.29-1.06 0l-1.4 1.4-1.45-1.45c-0.29-0.29-0.77-0.29-1.06 0s-0.29 0.76997 0 1.06l1.45 1.45-1.49 1.49c-0.29 0.29-0.29 0.77 0 1.06 0.15 0.15 0.34 0.22 0.53 0.22s0.38-0.07 0.53-0.22l1.49-1.49 1.45 1.45c0.15 0.15 0.34 0.22 0.53 0.22s0.38-0.07 0.53-0.22c0.29-0.29 0.29-0.76 0-1.06z"/>
 <path d="m14.02 3.78c-1.12-0.62-2.55-0.46-4.01 0.45l-2.92 1.83c-0.2 0.12-0.43 0.19-0.66 0.19h-1.43c-2.42 0-3.75 1.33-3.75 3.75v4c0 2.42 1.33 3.75 3.75 3.75h1.43c0.23 0 0.46 0.07 0.66 0.19l2.92 1.83c0.88 0.55 1.74 0.82 2.54 0.82 0.52 0 1.02-0.12 1.47-0.37 1.11-0.62 1.73-1.91 1.73-3.63v-9.18c0-1.72-0.62-3.01-1.73-3.63z"/>
</svg>
